X:1
T:Cluck Old Hen
M:2/4
L:1/8
K:Eb clef=treble
|: Gc B3/B/ | Gc F2 | Gc B3/B/ | G/-F/E/-=E/  C2:|
|: CC _E2 | CC B,2| CC/C/ EF| G/-F/E/-=E/ C2 :| 
W:
W:My old hen was a good old hen
W:She laid eggs for the railroad men
W:Sometimes eight and sometimes ten
W:She laid eggs for the railroad men
W: 
W: Cluck old hen, cluck and sing
W: Ain't laid an egg since late last spring
W: Cluck old hen, cluck and squall
W: Ain't laid an egg since late last fall
W: 
W:My old hen was a good old hen
W:She laid eggs for the railroad men
W:Sometimes one sometimes two
W:Sometimes enough for the whole damn crew
W:
W:Cluck old hen, cluck when I tell you
W:Lay more eggs or I'm gonna sell you
W:Cluck old hen, cluck in the lot
W:Lay more eggs or you're going in the pot

